libs/icons/src/svg/linkedin.svg

<svg width="16" height="16" viewBox="0 0 16 16" fill="none" xmlns="http://www.w3.org/2000/svg">
<g clip-path="url(#clip0_134_221)">
<path d="M15.3333 0H0.666667C0.266667 0 0 0.266667 0 0.666667V15.3333C0 15.7333 0.266667 16 0.666667 16H15.3333C15.7333 16 16 15.7333 16 15.3333V0.666667C16 0.266667 15.7333 0 15.3333 0ZM4.73333 13.6667H2.4V6H4.8V13.6667H4.73333ZM3.53333 4.93333C2.8 4.93333 2.13333 4.33333 2.13333 3.53333C2.13333 2.8 2.73333 2.13333 3.53333 2.13333C4.26667 2.13333 4.93333 2.73333 4.93333 3.53333C4.93333 4.33333 4.33333 4.93333 3.53333 4.93333ZM13.6667 13.6667H11.2667V9.93333C11.2667 9.06667 11.2667 7.93333 10.0667 7.93333C8.8 7.93333 8.66667 8.86667 8.66667 9.86667V13.6667H6.26667V6H8.53333V7.06667C8.86667 6.46667 9.6 5.86667 10.8 5.86667C13.2 5.86667 13.6667 7.46667 13.6667 9.53333V13.6667Z" fill="#202327"/>
</g>
<defs>
<clipPath id="clip0_134_221">
<rect width="16" height="16" fill="white"/>
</clipPath>
</defs>
</svg>

<svg xmlns="http://www.w3.org/2000/svg" viewBox="0 0 16 16" class="sageicon"><path d="M15.333 0H.667C.267 0 0 .267 0 .667v14.666c0 .4.267.667.667.667h14.666c.4 0 .667-.267.667-.667V.667c0-.4-.267-.667-.667-.667Zm-10.6 13.667H2.4V6h2.4v7.667h-.067Zm-1.2-8.734c-.733 0-1.4-.6-1.4-1.4 0-.733.6-1.4 1.4-1.4.734 0 1.4.6 1.4 1.4 0 .8-.6 1.4-1.4 1.4Zm10.134 8.734h-2.4V9.933c0-.866 0-2-1.2-2-1.267 0-1.4.934-1.4 1.934v3.8h-2.4V6h2.266v1.067c.334-.6 1.067-1.2 2.267-1.2 2.4 0 2.867 1.6 2.867 3.666v4.134Z"/></svg>
